X:16814
T:The Harlequen Dance
M:6/8
L:1/8
S:Armitt MS
K:A major
(f/2g/2)|a2A agf|e2e edc|d2d dbd|c2cc2B|cde Bcd|cde fga|gfe fe^d|eBG E3:
||:e|ef=g fef|dBBB2c|def fed|cAAA2g|fga def|GAB EAd|cea cdc|AEC A,2||
